Sardi-Flexible-Orchid/scalable/apps/mplayer.svg

<svg height="512" viewBox="0 0 512 512" width="512" xmlns="http://www.w3.org/2000/svg">
 <g fill-rule="evenodd">
  <path d="m471.95 253.05c0 120.9-98.01 218.91-218.91 218.91s-218.91-98.01-218.91-218.91 98.01-218.91 218.91-218.91 218.91 98.01 218.91 218.91" fill="#f06acb"/>
  <path d="m298 98.63c-5.193.02-10.426 1.384-15.281 4.188l-51.656 29.813.031.031h-67.62c-17.09 0-30.813 13.756-30.813 30.844v12.875l-.031-.031-18.5 10.781c-14.798 8.544-19.856 27.358-11.313 42.16l29.813 51.656.031.031v67.59c0 8.544 3.433 16.245 9 21.813l1.063 1.031 100.31 100.31c3.319.149 6.644.25 10 .25 120.9 0 218.91-98.01 218.91-218.91 0-3.358-.069-6.71-.219-10.03l-101.34-101.34c-5.584-5.584-13.323-9.03-21.875-9.03h-3.594l-24.938-24.938c-5.35-5.35-12.439-8.489-19.75-9-.74-.052-1.477-.097-2.219-.094m81.38 249.97c-.017 17.04-13.747 30.731-30.781 30.781.034-17.05 13.729-30.764 30.781-30.781" opacity=".25"/>
  <path d="m256 1c-140.83 0-255 114.17-255 255s114.17 255 255 255 255-114.17 255-255-114.17-255-255-255m8.827 44.931c120.9 0 218.9 98 218.9 218.9s-98 218.9-218.9 218.9-218.93-98-218.93-218.9 98.03-218.9 218.93-218.9" fill-opacity=".067"/>
  <g fill-opacity=".129">
   <path d="m256 4.43c-138.94 0-251.57 112.63-251.57 251.57s112.63 251.57 251.57 251.57 251.57-112.63 251.57-251.57-112.63-251.57-251.57-251.57m5.885 38.556c120.9 0 218.9 98 218.9 218.9s-98 218.9-218.9 218.9-218.93-98-218.93-218.9 98.03-218.9 218.93-218.9"/>
   <path d="m256 8.36c-136.77 0-247.64 110.87-247.64 247.64s110.87 247.64 247.64 247.64 247.64-110.87 247.64-247.64-110.87-247.64-247.64-247.64m2.942 31.691c120.9 0 218.9 98 218.9 218.9s-98 218.9-218.9 218.9-218.93-98-218.93-218.9 98.03-218.9 218.93-218.9"/>
  </g>
  <path d="m253.04 7.86c-135.42 0-245.19 109.78-245.19 245.19 0 135.42 109.78 245.19 245.19 245.19 135.42 0 245.19-109.78 245.19-245.19 0-135.42-109.78-245.19-245.19-245.19zm0 26.297c120.9 0 218.9 98 218.9 218.9s-98 218.9-218.9 218.9-218.93-98-218.93-218.9 98.03-218.9 218.93-218.9z" fill="#ffffff" stroke="#000000" stroke-opacity=".31" stroke-width="4.904"/>
 </g>
 <g fill-rule="evenodd">
  <path d="m163.45 132.65c-17.09 0-30.806 13.772-30.806 30.86v185.05c0 17.09 13.718 30.806 30.806 30.806h185.05c17.09 0 30.86-13.718 30.86-30.806v-185.05c0-17.09-13.772-30.86-30.86-30.86zm27.893 32.91l148.1 90.48-148.1 90.48v-180.95" fill="#ffffff"/>
  <path d="m300.21 98.71c-5.922-.414-11.929.909-17.478 4.113l-51.664 29.816h104.61l-10.8-18.51c-5.34-9.25-14.8-14.73-24.67-15.42m-167.59 77.62l-18.507 10.796c-14.798 8.544-19.853 27.356-11.31 42.15l29.816 51.664v-104.61m246.75 54.749v104.61l18.507-10.796c14.798-8.544 19.853-27.356 11.31-42.15l-29.816-51.664m-203.06 148.31l10.796 18.507c8.544 14.798 27.356 19.853 42.15 11.31l51.664-29.816h-104.61" fill="#f06acb" opacity=".5"/>
 </g>
</svg>

<svg xmlns="http://www.w3.org/2000/svg" height="512" width="512"><g fill-rule="evenodd"><path d="M471.95 253.05c0 120.9-98.01 218.91-218.91 218.91S34.13 373.95 34.13 253.05 132.14 34.14 253.04 34.14s218.91 98.01 218.91 218.91" fill="#f06acb"/><path d="M256 1C115.17 1 1 115.17 1 256s114.17 255 255 255 255-114.17 255-255S396.83 1 256 1m8.827 44.93c120.9 0 218.9 98 218.9 218.9s-98 218.9-218.9 218.9-218.93-98-218.93-218.9 98.03-218.9 218.93-218.9" fill-opacity=".067"/><g fill-opacity=".129"><path d="M256 4.43C117.06 4.43 4.43 117.06 4.43 256S117.06 507.57 256 507.57 507.57 394.94 507.57 256 394.94 4.43 256 4.43m5.885 38.556c120.9 0 218.9 98 218.9 218.9s-98 218.9-218.9 218.9-218.93-98-218.93-218.9 98.03-218.9 218.93-218.9"/><path d="M256 8.36C119.23 8.36 8.36 119.23 8.36 256S119.23 503.64 256 503.64 503.64 392.77 503.64 256 392.77 8.36 256 8.36m2.942 31.69c120.9 0 218.9 98 218.9 218.9s-98 218.9-218.9 218.9-218.93-98-218.93-218.9 98.03-218.9 218.93-218.9"/></g><path d="M253.04 7.86C117.62 7.86 7.85 117.64 7.85 253.05c0 135.42 109.78 245.19 245.19 245.19 135.42 0 245.19-109.78 245.19-245.19 0-135.42-109.78-245.19-245.19-245.19zm0 26.297c120.9 0 218.9 98 218.9 218.9s-98 218.9-218.9 218.9-218.93-98-218.93-218.9 98.03-218.9 218.93-218.9z" fill="#fff" stroke="#000" stroke-opacity=".31" stroke-width="4.904"/></g><path d="M328.69 139.847l-18.434.006-152.33 3.254c-8.367.18-15.025 2.985-15.14 11.346l-2.713 195.177c-.058 4.184 3.96-4.138 2.362 11.618l-.566-1.375c-.026-.026 8.06-15.805 2.09 12.945l97.838 97.39c123.35 21.58 252.07-124.1 227.282-234.943l-103.1-98.034-26.582 4.334c-2.738-2.738-5.983-4.977-10.167-4.977" opacity=".25"/><path d="M163.45 132.65c-17.09 0-30.806 13.772-30.806 30.86v185.05c0 17.09 13.718 30.806 30.806 30.806H348.5c17.09 0 30.86-13.718 30.86-30.806V163.51c0-17.09-13.772-30.86-30.86-30.86zm27.893 32.91l148.1 90.48-148.1 90.48V165.57" fill="#fff" fill-rule="evenodd"/></svg>
